svg/l/SB.svg

<svg height="24" viewBox="0 0 32 24" width="32" xmlns="http://www.w3.org/2000/svg" xmlns:xlink="http://www.w3.org/1999/xlink"><defs><path id="a" d="m0 0h32v24h-32z"/><mask id="b" fill="#fff"><path d="m0 0h32v24h-32z" fill="#fff" fill-rule="evenodd"/></mask><mask id="c" fill="#fff"><use fill="#fff" fill-rule="evenodd" xlink:href="#a"/></mask></defs><g fill="none" fill-rule="evenodd" mask="url(#b)"><use fill="#3d58db" xlink:href="#a"/><path d="m0 24h32v-24z" fill="#579d20" mask="url(#c)"/><path d="m-.782 24.745-1.804-2.496 36.261-24.203 1.804 2.496z" fill="#feca00" fill-rule="nonzero" mask="url(#c)"/><g fill="#f7fcff" mask="url(#c)"><g transform="translate(3 2)"><path d="m2.01685017 3.60077606-1.36356945.94579783.43571067-1.6199267-1.0010013-1.03481042 1.35541182-.055953.57344826-1.60186691.57344827 1.60186691h1.35310576l-.99869524 1.09076342.50016246 1.52431463zm5.65817916 0-1.36356945.94579783.43571067-1.6199267-1.0010013-1.03481042 1.35541182-.055953.57344826-1.60186691.57344827 1.60186691h1.35310576l-.99869524 1.09076342.50016247 1.52431463z"/><path d="m2.01685017 9.60077606-1.36356945.94579784.43571067-1.61992671-1.0010013-1.03481042 1.35541182-.055953.57344826-1.60186691.57344827 1.60186691h1.35310576l-.99869524 1.09076342.50016246 1.52431461zm5.65817916 0-1.36356945.94579784.43571067-1.61992671-1.0010013-1.03481042 1.35541182-.055953.57344826-1.60186691.57344827 1.60186691h1.35310576l-.99869524 1.09076342.50016247 1.52431461zm-2.6634736-3.0920307-1.36356946.94579783.43571067-1.6199267-1.0010013-1.03481042 1.35541182-.055953.57344827-1.60186691.57344826 1.60186691h1.35310577l-.99869525 1.09076342.50016247 1.52431462z"/></g></g></g></svg>

<svg xmlns="http://www.w3.org/2000/svg" xmlns:xlink="http://www.w3.org/1999/xlink" width="32" height="24" viewBox="0 0 32 24">
  <defs>
    <rect id="sb---solomon-islands-a" width="32" height="24" x="0" y="0"/>
    <rect id="sb---solomon-islands-c" width="32" height="24" x="0" y="0"/>
  </defs>
  <g fill="none" fill-rule="evenodd">
    <mask id="sb---solomon-islands-b" fill="#fff">
      <use xlink:href="#sb---solomon-islands-a"/>
    </mask>
    <g mask="url(#sb---solomon-islands-b)">
      <mask id="sb---solomon-islands-d" fill="#fff">
        <use xlink:href="#sb---solomon-islands-c"/>
      </mask>
      <use fill="#3D58DB" xlink:href="#sb---solomon-islands-c"/>
      <polygon fill="#579D20" points="0 24 32 24 32 0" mask="url(#sb---solomon-islands-d)"/>
      <polygon fill="#FECA00" fill-rule="nonzero" points="-.782 24.745 -2.586 22.249 33.675 -1.954 35.479 .542" mask="url(#sb---solomon-islands-d)"/>
      <g fill="#F7FCFF" mask="url(#sb---solomon-islands-d)">
        <g transform="translate(3 2)">
          <path d="M2.01685017,3.60077606 L0.653280717,4.54657389 L1.08899139,2.92664719 L0.0879900888,1.89183677 L1.44340191,1.83588377 L2.01685017,0.234016864 L2.59029844,1.83588377 L3.9434042,1.83588377 L2.94470896,2.92664719 L3.44487142,4.45096182 L2.01685017,3.60077606 Z M7.67502933,3.60077606 L6.31145988,4.54657389 L6.74717055,2.92664719 L5.74616925,1.89183677 L7.10158107,1.83588377 L7.67502933,0.234016864 L8.2484776,1.83588377 L9.60158336,1.83588377 L8.60288812,2.92664719 L9.10305059,4.45096182 L7.67502933,3.60077606 Z"/>
          <path d="M2.01685017,9.60077606 L0.653280717,10.5465739 L1.08899139,8.92664719 L0.0879900888,7.89183677 L1.44340191,7.83588377 L2.01685017,6.23401686 L2.59029844,7.83588377 L3.9434042,7.83588377 L2.94470896,8.92664719 L3.44487142,10.4509618 L2.01685017,9.60077606 Z M7.67502933,9.60077606 L6.31145988,10.5465739 L6.74717055,8.92664719 L5.74616925,7.89183677 L7.10158107,7.83588377 L7.67502933,6.23401686 L8.2484776,7.83588377 L9.60158336,7.83588377 L8.60288812,8.92664719 L9.10305059,10.4509618 L7.67502933,9.60077606 Z M5.01155573,6.50874536 L3.64798627,7.45454319 L4.08369694,5.83461649 L3.08269564,4.79980607 L4.43810746,4.74385307 L5.01155573,3.14198616 L5.58500399,4.74385307 L6.93810976,4.74385307 L5.93941451,5.83461649 L6.43957698,7.35893111 L5.01155573,6.50874536 Z"/>
        </g>
      </g>
    </g>
  </g>
</svg>
